X:1
T:Åpen korøvelse - Hotaru koi
T:Anon. Japan
T:Kom, ildflue. Det vannet der borte er bittert. Det vannet her er søtt.
Z:Kom, ildflue. Det vannet der borte er bittert. Det vannet her er søtt.
%%score [ 1 2 3 ]
L:1/8
M:4/4
K:Bb
V:1 treble nm="I"
V:2 treble nm="II"
V:3 treble nm="III"
V:1
|: F2 z2 F2 z2 | F z C E F2 z2 | F z F F F2 G G | F2 E E F z z2 | F z F F F2 G G | F2 E E F z z2 | %6
w: Ho, ho,|ho- ta- ru koi.|At- chi no mi- zu wa|ni- ga- i- zo,|Kot- chi no mi- zu wa|a- ma- i- zo.|
 F2 z2 F2 z2 | F z C E F2 z2 | z8 :| %9
w: Ho, ho,|ho- ta- ru koi.||
V:2
|: z2 F2 z2 F2 | z2 F z C E F2 | z2 F z F F F2 | G G F2 E E F z | z2 F z F F F2 | G G F2 E E F z | %6
w: Ho, ho,|ho- ta- ru koi.|At- chi no mi-|zu wa ni- ga- i- zo,|Kot- chi no mi-|zu wa a- ma- i- zo.|
 z2 F2 z2 F2 | z2 F z C E F2 | z8 :| %9
w: Ho, ho,|ho- ta- ru koi.||
V:3
|: z4 F2 z2 | F2 z2 F z C E | F2 z2 F z F F | F2 G G F2 E E | F z z2 F z F F | F2 G G F2 E E | %6
w: Ho,|ho, ho- ta- ru|koi. At- chi no|mi- zu wa ni- ga- i-|zo, Kot- chi no|mi- zu wa a- ma- i-|
 F z z2 F2 z2 | F2 z2 F z C E | F2 z2 z4 :| %9
w: zo. Ho,|ho, ho- ta- ru|koi.|

